X: 311
T: Á Perpignan
R: jig
M: 6/8
K: Edorian
B2E c2A|dB/c/d eAA|dfa gfe|def ecA|
d2d ecA|GAB AFG|Ad/e/f ecA|1 GEA GFD:|2 GEA D2F||
[K: Emin]
E2F GFE|EGA AGE|A2B cBA-|AB/c/d ecA|
g2g age|edB dgf|e/f/gd eBd|ABG EGF|
E2F GBG|Eee edE|A2B cdB|Aaa age|
g2a e2a|fed eBe|agf ed^c|dDE FGA||

